!!!!SEGMENT: pl-cz--d-ii-28--004_elsner-jozef--missa-f-op-85-sanctus.krn
!!!cenid: 18xx:176
!!!COM: Elsner, Józef
!!!COM-rismID: pe30000957
!!!CDT: 1769/06/01-1854/04/18
!!!CNT: Polish
!!!OPR: Missa F op. 85
!!!OTL: Sanctus
!!!OMV: 004
!!!PDT: 1847
!!!AGN: Sacred; Mass
!!!SMS-siglum: PL-CZ
!!!SMS-shelfmark: D II-28
!!!SMS-shelfwork: 001-004 M
!!!NIFC-rismSourceID: 991017962
!!!NIFC-rismChildID: 991017962
!!!NIFC-islandoraID:
!!!URL-pdf-islandora:
!!!URL-scan:
!!!ONB-nifc: UWAGA: części Mszy: Kyrie, Gloria, Sanctus, Benedictus, Agnus Dei
!!!AIN: 1 bass 1 organ 2 tenor
!!!key:
**kern	**kern	**kern	**text	**kern	**text	**kern	**text
*	*	*	*	*group1	*	*group1	*
*part4	*part4	*part3	*part3	*part2	*part2	*part1	*part1
*staff5	*staff4	*staff3	*staff3	*staff2	*staff2	*staff1	*staff1
*I"Organo	*I"Organo	*I"Basso	*	*I"Tenori	*	*I""Tenore.	*
*	*	*	*	*mI"Tenore II	*	*mI"Tenore I	*
*I'	*	*I'	*	*I'	*	*I'	*
*mI'org	*	*mI'B	*	*mI'T II	*	*mI'T I	*
*Iorgan	*Iorgan	*Ibass	*	*Itenor	*	*Itenor	*
*ICklav	*ICklav	*ICvox	*	*ICvox	*	*ICvox	*
*clefF4	*clefG2	*clefF4	*	*clefC4	*	*clefC4	*
*	*	*	*	*mclefGv2	*	*mclefGv2	*
*k[b-]	*k[b-]	*k[b-]	*	*k[b-]	*	*k[b-]	*
*d:	*d:	*d:	*	*d:	*	*d:	*
*M4/4	*M4/4	*M4/4	*	*M4/4	*	*M4/4	*
*met(c)	*met(c)	*met(c)	*	*met(c)	*	*met(c)	*
=1	=1	=1	=1	=1	=1	=1	=1
!!!OMD:
!!!OMD-mod: Andante
!	!LO:TX:a:i:B:t=Andante:mod=	!	!	!	!	!LO:TX:a:i:B:t=Andante:mod=	!
4F\	4f\	1r	.	1r	.	1r	.
4G\	4g/	.	.	.	.	.	.
4A\	4a/	.	.	.	.	.	.
4B-\	4b-/	.	.	.	.	.	.
=2	=2	=2	=2	=2	=2	=2	=2
!	!	!LO:N:vis=2	!	!	!	!	!
((1FF/	4f/	1F\	Sanc-	(4F/	Sanc-	(4A\	Sanc-
.	4g/	.	.	4G/	.	4B-\	.
.	4a/	.	.	4A/	.	4c\	.
.	4b-/	.	.	4B-/)	.	4d\)	.
=3	=3	=3	=3	=3	=3	=3	=3
!	!	!LO:MO:mod=!null:null	!	!LO:MO:mod=!null:null	!	!LO:MO:mod=!null:null	!
!	!	!LO:N:vis=2	!	!LO:N:vis=2	!	!LO:N:vis=2	!
2FF/))	4a\	1F\	-tus	1A\	-tus	1c\	-tus
.	(16ff\LL	.	.	.	.	.	.
.	16ee\	.	.	.	.	.	.
.	16ff\	.	.	.	.	.	.
.	16gg\JJ	.	.	.	.	.	.
2r	8aa\L	.	.	.	.	.	.
.	8ff\	.	.	.	.	.	.
.	8cc\	.	.	.	.	.	.
.	8a\J)	.	.	.	.	.	.
=4	=4	=4	=4	=4	=4	=4	=4
!	!	!LO:MO:mod=!null:null	!	!	!	!	!
!	!	!LO:N:vis=2	!	!	!	!	!
((1CC/	4e/	1C/	Sanc-	(4E/	Sanc-	(4G/	Sanc-
.	4f/	.	.	4F/	.	4A/	.
.	4g/	.	.	4G/	.	4B-/	.
.	4a/	.	.	4A/)	.	4c/)	.
=5	=5	=5	=5	=5	=5	=5	=5
!	!	!LO:MO:mod=!null:null	!	!LO:MO:mod=!null:null	!	!LO:MO:mod=!null:null	!
!	!	!LO:N:vis=2	!	!LO:N:vis=2	!	!LO:N:vis=2	!
2CC/))	4g\	1C/	-tus	1G/	-tus	1B-\	-tus
.	(16ee\LL	.	.	.	.	.	.
.	16dd\	.	.	.	.	.	.
.	16ee\	.	.	.	.	.	.
.	16ff\JJ	.	.	.	.	.	.
2r	8gg\L	.	.	.	.	.	.
.	8ee\	.	.	.	.	.	.
.	8cc\	.	.	.	.	.	.
.	8b-\J)	.	.	.	.	.	.
=6	=6	=6	=6	=6	=6	=6	=6
*	*	*	*	*^	*	*	*
2DD/	4f/	(2D\	Sanc-	(2F/	1F\	Sanc-	(4A\	Sanc-
.	4g/	.	.	.	.	.	4B-\	.
4DD-X/	4f/	4D-X\	.	4G#X/	.	.	4Bn\	.
4CC/	4f/	4C\	.	4A/)	.	.	4d\)	.
=7	=7	=7	=7	=7	=7	=7	=7	=7
2BBB-/	4f\	2BB-/)	-tus	2B-/	2F\	-tus	2d\	-tus
.	(16bb-\LL	.	.	.	.	.	.	.
.	16aa\	.	.	.	.	.	.	.
.	16bb-\	.	.	.	.	.	.	.
.	16ccc\JJ	.	.	.	.	.	.	.
*	*	*	*	*v	*v	*	*	*
2r	8ddd\L	2r	.	2r	.	2r	.
.	8bb-\	.	.	.	.	.	.
.	8gg\	.	.	.	.	.	.
.	8ff\J)	.	.	.	.	.	.
=8	=8	=8	=8	=8	=8	=8	=8
!!LO:PB:g=original
1C/	(4ee\	4.G\	Do-	4.B-\	Do-	4.e\	Do-
.	16ee\LL)	.	.	.	.	.	.
.	(16dd\	.	.	.	.	.	.
.	16ee\	8G\	-mi-	8B-\	-mi-	8e\	-mi-
.	16ff\JJ	.	.	.	.	.	.
.	8gg\L	2G\	-nus	2B-\	-nus	2e\	-nus
.	8cc\	.	.	.	.	.	.
.	8dd\	.	.	.	.	.	.
.	8ee\J)	.	.	.	.	.	.
=9	=9	=9	=9	=9	=9	=9	=9
1C/	(4ff\	2F\	De-	2A\	De-	2f\	De-
.	16ff\LL)	.	.	.	.	.	.
.	(16ee\	.	.	.	.	.	.
.	16ff\	.	.	.	.	.	.
.	16gg\JJ	.	.	.	.	.	.
.	8aa\L	2F\	-us	2A\	-us	2f\	-us
.	8ff\	.	.	.	.	.	.
.	8gg\	.	.	.	.	.	.
.	8aa\J)	.	.	.	.	.	.
=10	=10	=10	=10	=10	=10	=10	=10
1C/	(4bbn\	2.D\	Sa-	2.Bn\	Sa-	2.f\	Sa-
.	16bb\LL)	.	.	.	.	.	.
.	(16aa\	.	.	.	.	.	.
.	16bb\	.	.	.	.	.	.
.	16ccc\JJ	.	.	.	.	.	.
.	8ddd\L	.	.	.	.	.	.
.	8gg\	.	.	.	.	.	.
.	8aa\	4D\	-ba-	4B\	-ba-	4f\	-ba-
.	8bb\J)	.	.	.	.	.	.
=11	=11	=11	=11	=11	=11	=11	=11
2.C\	(4ccc\	2.C/	-oth	2.c\	-oth	2.e\	-oth
.	16ccc\LL)	.	.	.	.	.	.
.	(16bbn\	.	.	.	.	.	.
.	16ccc\	.	.	.	.	.	.
.	16ddd\JJ	.	.	.	.	.	.
.	16eee\LL	.	.	.	.	.	.
.	16fff\	.	.	.	.	.	.
.	16eee\	.	.	.	.	.	.
.	16ddd\JJ	.	.	.	.	.	.
4r	16bb\LL	4r	.	4r	.	4r	.
.	16ccc\	.	.	.	.	.	.
.	16ddd\	.	.	.	.	.	.
.	16eee\JJ)	.	.	.	.	.	.
=12	=12	=12	=12	=12	=12	=12	=12
4F\	4ff\	(4F\	De-	(4f\	De-	(4f\	De-
4E\	4cc\	4C\)	.	4c\)	.	4c\)	.
4AA\	4a\	(4AA/	-us	(4A\	-us	(4A\	-us
4FF\	4f\	4F\)	.	4F/)	.	4f\)	.
=13	=13	=13	=13	=13	=13	=13	=13
!	!LO:SIC:v:s=2ee 2gg	!	!	!	!	!	!
((1CC/	2cc\	2.C/	Sa-	2.c\	Sa-	2.c\	Sa-
.	4.ff\	.	.	.	.	.	.
.	.	4C/	-ba-	4c\	-ba-	4c\	-ba-
.	8ee\	.	.	.	.	.	.
=14	=14	=14	=14	=14	=14	=14	=14
2.CC/))	2.cc\	2.C/	-oth	2.c\	-oth	2.c\	-oth
4r	4r	4r	.	4r	.	4r	.
!!LO:PB:g=original
=||15	=||15	=||15	=||15	=||15	=||15	=||15	=||15
!!!OMD:
!!!OMD-mod: Allegro moderato
!LO:TX:a:i:B:t=Allo moderato:mod=	!	!	!	!	!	!LO:TX:a:i:B:t=Allo moderato:mod=	!
4CC/	4c/	(4C/	Ple-	(4c\	Ple-	(4c\	Ple-
4DD/	4d/	4D/)	.	4d\)	.	4d\)	.
4EE/	4e/	4E\	-ni	4e\	-ni	4e\	-ni
4FF/	4f\	4F\	Sunt	4f\	Sunt	4f\	Sunt
=16	=16	=16	=16	=16	=16	=16	=16
*	*^	*	*	*	*	*	*
1FF/	2cc/	[1c\	2F\	ce-	2A\	ce-	2c\	ce-
.	2a/	.	2F\	-li	2F/	-li	2A\	-li
=17	=17	=17	=17	=17	=17	=17	=17	=17
1CC/	4e/	1c\_	2C/	Ple-	(4E/	Ple-	(4G/	Ple-
.	4f/	.	.	.	4F/)	.	4A/)	.
.	4g/	.	4C/	-ni	4G/	-ni	4B-\	-ni
.	4a/	.	4C/	sunt	4A/	sunt	4c\	sunt
=18	=18	=18	=18	=18	=18	=18	=18	=18
2CC/	2c/	2c]/	2ryy	ce-	2G/	ce-	2B-\	ce-
2CC/	4c/	2ryy	4C/	-li	4E/	-li	4G/	-li
.	8e/L	.	4C/	et	4E/	et	8c\L	et
.	8b-/J	.	.	.	.	.	8B-\J	.
*	*v	*v	*	*	*	*	*	*
=19	=19	=19	=19	=19	=19	=19	=19
2CC#X/	2e/	2C#X/	ter-	2E/	ter-	2A\	ter-
2DD/	2f/	2D/	-ra	2A/	-ra	2A\	-ra
=20	=20	=20	=20	=20	=20	=20	=20
*	*^	*	*	*	*	*	*
2BBBn/	2g/	2f\	4.BBn/	glo-	4.F/	glo-	4.d\	glo-
.	.	.	8BB/	-ri-	8F/	-ri-	8d\	-ri-
2CC/	2cc/	2e\	2C/	-a	2E/	-a	2c\	-a
*	*v	*v	*	*	*	*	*	*
=21	=21	=21	=21	=21	=21	=21	=21
!!LO:LB:g=original
2AAA/	2f/	4.AA/	glo-	4.F/	glo-	4.c\	glo-
.	.	8AA/	-ri-	8F/	-ri-	8c\	-ri-
2DD/	2a/	2D\	-a	2F/	-a	2A\	-a
=22	=22	=22	=22	=22	=22	=22	=22
2BBB-/	2g/	2BB-/	tu-	1G/	tu-	2f\	tu-
2CC/	>2cc/	2C/	.	.	.	2e\	.
=23	=23	=23	=23	=23	=23	=23	=23
2AAA/	2f/	2AA/	.	1F/	.	2e\	.
2BBB-/	[>2b-/	2BB-/	.	.	.	2d\	.
=24	=24	=24	=24	=24	=24	=24	=24
*	*^	*	*	*	*	*	*
2GGG/	2b-/]	2e/	2GG/	.	1E/	.	2d\	.
2AAA/	2cc#X/	4a\	2AA/	.	.	.	2c#X\	.
.	.	4g\	.	.	.	.	.	.
*	*v	*v	*	*	*	*	*	*
=	=	=	=	=	=	=	=
2.DD/	2.f/	2D\	-a	2F/	-a	2d\	-a
.	.	4r	.	4r	.	4r	.
=25	=25	=25	=25	=25	=25	=25	=25
!!!OMD:
!!!OMD-mod: [segno]
!	!LO:TX:t=[segno]:mod=	!LO:TX:t=[segno]:mod=	!	!LO:TX:a:t=[segno]:mod=	!	!LO:TX:a:i:t=[segno]:mod=	!
!	!	!	!	!	!	!LO:TX:a:i:t=Ossanna:mod=	!
4BBB-/	4f/	4BB-/	O-	4F/	O-	4d\	O-
=26	=26	=26	=26	=26	=26	=26	=26
*	*	*^	*	*	*	*	*
*	*	*cue	*	*	*	*	*	*
1CC/	2f/	4ryy	2C/	-san-	4A/	-san-	4c\	-san-
.	.	4C/	.	-na	4F/	na	4A\	-na
.	2e/	4C/	2C/	in	4G/	in	4B-\	in
.	.	4C/	.	ex-	4E/	ex-	4G\	ex-
*	*	*Xcue	*	*	*	*	*	*
*	*	*v	*v	*	*	*	*	*
=27	=27	=27	=27	=27	=27	=27	=27
*	*^	*	*	*	*	*	*
4FFF/	4a/	1f\	4FF/	-cel-	2F/	-cel-	(4A\	-cel-
4GGG/	4b-/	.	4GG/	.	.	.	4B-\	.
4AAA/	4cc/	.	4AA/	.	2F/	sis	4c\	.
4BBB-/	4dd/	.	4BB-/	-sis	.	.	4d\)	-sis
*	*v	*v	*	*	*	*	*	*
=28	=28	=28	=28	=28	=28	=28	=28
!!LO:PB:g=original
2.CC/	2f/	2.C/	De-	2A\	De-	2c\	De-
.	2e/	.	.	2G/	.	2B-\	.
4CC#X/	.	4C#X/	.	.	.	.	.
=29	=29	=29	=29	=29	=29	=29	=29
2DD/	2f/	2D\	-o	2F/	-o	2A\	-o
2BBB-/	2f/	4r	.	4r	.	4r	.
.	.	4BB-/	O-	4B-\	O-	4d\	O-
=30	=30	=30	=30	=30	=30	=30	=30
*	*	*^	*	*	*	*	*
*	*	*cue	*	*	*	*	*	*
1CC/	2f/	4C/	2C/	-san-	4A/	-san-	4c\	-san-
.	.	4C/	.	-na	4F/	-na	4A\	-na
.	2e/	4C/	2C/	in-	4G/	in	4B-\	in
.	.	4C/	.	-ex-	4E/	ex-	4G\	ex-
*	*	*Xcue	*	*	*	*	*	*
*	*	*v	*v	*	*	*	*	*
=31	=31	=31	=31	=31	=31	=31	=31
*	*^	*	*	*	*	*	*
4FFF/	4a/	1f\	4FF/	-cel-	2F/	-cel-	(4A\	-cel-
4GGG/	4b-/	.	4GG/	.	.	.	4B-\	.
4AAA/	4cc/	.	4AA/	.	2F/	-sis	4c\	.
4BBB-/	4dd/	.	4BB-/	-sis	.	.	4d\)	-sis
*	*v	*v	*	*	*	*	*	*
=32	=32	=32	=32	=32	=32	=32	=32
2.CC/	2f/	2.C/	De-	2A\	De-	2c\	De-
.	2e/	.	.	2G\	.	2B-\	.
4CC#X/	.	4C#X/	.	.	.	.	.
=33	=33	=33	=33	=33	=33	=33	=33
*	*^	*	*	*	*	*	*
2DD/	2f/	2a\	2D\	.	2F/	.	2A\	.
2BBB-/	2ryy	2g\	2BB-/	.	2G/	.	2f\	.
=34	=34	=34	=34	=34	=34	=34	=34	=34
*	*	*^	*	*	*	*	*	*
!	!	!	!LO:MO:mod=!null:null	!	!	!	!	!	!
!	!	!	!LO:N:vis=1	!	!	!	!	!	!
1CC/	2ff/	1f\	2.cc/	1C/	.	1G/	.	2f\	.
.	2ee/	.	.	.	.	.	.	2e\	.
.	.	.	4b-/	.	.	.	.	.	.
*	*v	*v	*v	*	*	*	*	*	*
=35	=35	=35	=35	=35	=35	=35	=35
4FF/	4f/	4F\	-o	4A\	-o	4f\	-o
4CC/	4e/	4C\	O-	4c\	O-	4e\	O-
4FF/	4a/	4F\	-san-	4c\	-san-	4a\	-san-
4EE/	4g/	4E\	-na	4c\	-na	4g\	-na
=36	=36	=36	=36	=36	=36	=36	=36
!!LO:PB:g=original
4DD/	4f/	4D/	in-	4f\	in-	4f\	in-
4CC/	4e/	4C/	-ex-	4e\	-ex-	4e\	-ex-
4BBB-/	4d/	4BB-/	-cel-	4d\	-cel-	4d\	-cel-
4AAA/	4c/	4AA/	-sis	4c\	-sis	4c\	-sis
=37	=37	=37	=37	=37	=37	=37	=37
!	!	!	!	!	!	!LO:MO:mod=!null:null	!
!	!	!	!	!	!	!LO:N:vis=2.	!
2GGG/	2B-/	(2GG/	De-	(2B-/	De-	(2B-\	De-
2CC/	4c/	2C/)	.	2E/)	.	4G/	.
.	4c/	.	.	.	.	4c\)	.
=38	=38	=38	=38	=38	=38	=38	=38
2FF/	4c/	2.FF/	-o	2.F/	-o	2.A\	-o
.	4f/	.	.	.	.	.	.
2FFF/	4g/	.	.	.	.	.	.
.	4a/	4r	.	4r	.	4r	.
=39	=39	=39	=39	=39	=39	=39	=39
*	*	*	*	*^	*	*	*
1BBB-/;	1f/;	1BB-/;	De-	1B-/;	1F\	De-	1d\;	De-
=40	=40	=40	=40	=40	=40	=40	=40	=40
1FF/;	1f/;	1F\;	-o	1A/;	1F\	-o	1d\;	-o
*	*	*	*	*v	*v	*	*	*
==	==	==	==	==	==	==	==
*-	*-	*-	*-	*-	*-	*-	*-
!!!system-decoration: [(s1,s2,s3)],[(s4,s5)]
!!!RDF**kern: > = above
!!!RDF**kern: < = below
!!!ENC: Tomasz Grochalski
!!!END: 2020-03-05
!!!ENC: Leszek Kubiak
!!!END: 2020-05-04
!!!ENC-modern: Leszek Kubiak
!!!END-modern: 2022-12-01
!!!YEC: Copyright 2022 Narodowy Instytut Fryderyka Chopina (https://polishscores.org)
!!!YEM: License CC-BY-4.0 (https://creativecommons.org/licenses/by/4.0)
!!!filter-modern: sic -sq | autostem -r | shed -e "s/LO:DY:(a|b|rj)/LO:dy:$1/L" | modori -m |
